packages/symbols/svgs/outline/file-image-outline.svg

<svg width="24" height="24" viewBox="0 0 24 24" fill="none" xmlns="http://www.w3.org/2000/svg">
<path fill-rule="evenodd" clip-rule="evenodd" d="M2 0H3H15H15.4142L15.7071 0.292893L21.7071 6.29289L22 6.58579V7V23V24H21H3H2V23V1V0ZM4 2V22H20V8H15C14.4477 8 14 7.55228 14 7V2H4Z" fill="black"/>
<path d="M12.6502 13.5689C12.7901 13.3817 13.0252 13.2692 13.277 13.2692C13.5298 13.2692 13.7665 13.3798 13.8566 13.569L17.8735 18.9536C17.9491 19.0549 17.9925 19.1727 17.9991 19.2944C18.0057 19.4161 17.9752 19.5371 17.9109 19.6445C17.78 19.8633 17.5248 20 17.247 20H6.70319C6.47402 20 6.21849 19.8654 6.08911 19.6444C6.02479 19.537 5.99429 19.416 6.00088 19.2944C6.00746 19.1727 6.05088 19.0549 6.1265 18.9536L8.63712 15.5882C8.77683 15.401 9.01197 15.2885 9.26384 15.2885C9.38779 15.2886 9.50978 15.3162 9.61887 15.3688C9.72796 15.4214 9.82075 15.4974 9.88894 15.5899L10.5173 16.4327L12.6502 13.5689Z" fill="black"/>
<path d="M10.3021 11.5385C10.3021 12.388 9.5312 13.0769 8.58064 13.0769C7.62846 13.0769 6.85919 12.3894 6.85919 11.5385C6.85919 10.6875 7.62846 10 8.58064 10C9.53281 10 10.3021 10.6889 10.3021 11.5385Z" fill="black"/>
</svg>

<svg width="24" height="24" viewBox="0 0 24 24" xmlns="http://www.w3.org/2000/svg"><path fill-rule="evenodd" clip-rule="evenodd" d="M2 0h13.414l.293.293 6 6 .293.293V24H2V0Zm2 2v20h16V8h-5a1 1 0 0 1-1-1V2H4Z"/><path d="M12.65 13.569c.14-.187.375-.3.627-.3.253 0 .49.11.58.3l4.017 5.385a.615.615 0 0 1 .037.69.77.77 0 0 1-.664.356H6.703a.74.74 0 0 1-.614-.356.615.615 0 0 1 .037-.69l2.511-3.366a.78.78 0 0 1 .627-.3.82.82 0 0 1 .355.08c.109.053.202.13.27.222l.628.843 2.133-2.864Zm-2.348-2.03c0 .849-.77 1.538-1.721 1.538-.953 0-1.722-.688-1.722-1.538 0-.851.77-1.539 1.722-1.539s1.721.689 1.721 1.539Z"/></svg>
